X:1
T:Hey Polka
L:1/4
M:4/4
I:linebreak $
K:D
V:1 treble
V:1
 A G |:"D" F A d F | A A/B/ A B/A/ |"G" G B d G | B2 B c/B/ |$
 A c e e/f/ | g f e d |1  c d/c/ B c/B/ | A2 A G :|2 c A B c | d2 A G |:$
2 a a/a/ a a/a/ ||2 a g f e ||2 d3/2 B/ B B ||2  B2 z2 ||2 A c e e/f/ ||$
 g f e d |1 c d/c/ B c/B/ | A e f g :|2 c A B c | d2 |]
